src/images/characters/Triangle_2.svg

<?xml version="1.0" encoding="UTF-8"?><svg id="a" xmlns="http://www.w3.org/2000/svg" xmlns:xlink="http://www.w3.org/1999/xlink" viewBox="0 0 150 150"><defs><style>.d,.e{fill:none;}.e,.f{stroke-linecap:round;}.e,.f,.g,.h,.i{stroke-linejoin:round;}.e,.i{stroke:#593314;}.f{stroke:#593214;}.f,.j,.i{fill:#f89e4f;}.k{fill:#f05124;}.l{fill:#fff;}.m{fill:#593314;}.g{stroke-width:1.66px;}.g,.h{fill:#c5c6c8;stroke:#909395;}.n{clip-path:url(#c);}.o{clip-path:url(#b);}</style><clipPath id="b"><rect class="d" x="29.04" width="91.93" height="140.5"/></clipPath><clipPath id="c"><path class="d" d="M54.53,44.89c17.3,11.87,19.61-4.74,26.02,2.63,6.14,7.06-6.07,27.02-19.47,16.98-7.73-5.79-10.69-20.55-6.55-19.61Z"/></clipPath></defs><g class="o"><g><g><path class="g" d="M57.27,38.72s-8.18-25.1-5.46-48.73"/><path class="h" d="M55.15-12.12c.46,.74,.69,1.63,.58,2.56-2.58,22.46,5.22,46.81,5.3,47.06,.67,2.08-.46,4.31-2.54,4.98-2.08,.68-4.31-.46-4.98-2.53-.35-1.06-8.42-26.2-5.63-50.41,.25-2.17,2.21-3.72,4.38-3.47,1.24,.14,2.28,.84,2.89,1.82Z"/></g><path class="h" d="M57.08,74.78c-1.55,7.41-4.59,27.22,3.96,48.28-1.34,7.24-1.2,17.99-1.2,17.99l11.16-16.14c-13.34-24.26-7.71-46.33-6.66-50.77"/><path class="h" d="M73.98,72.46c-1.55,7.41-4.59,27.22,3.96,48.28-1.34,7.24-1.2,17.99-1.2,17.99l11.16-16.14c-13.34-24.26-7.71-46.33-6.66-50.77"/><polygon class="i" points="71.43 5.5 51.86 40.34 32.28 75.18 72.24 74.72 112.2 74.25 91.82 39.87 71.43 5.5"/><g><ellipse class="m" cx="60.95" cy="35.61" rx="7.76" ry="2.95" transform="translate(5.54 79.34) rotate(-68.57)"/><ellipse class="m" cx="71.52" cy="39.75" rx="7.76" ry="2.95" transform="translate(8.39 91.81) rotate(-68.57)"/></g><path class="f" d="M71.68,17.47s-6.16-5.79-7.65-4.07c-1.21,1.4,4.52,4.81,4.39,5.01s-7.32-4.88-8.54-2.67c-1.09,1.97,5.94,4.72,5.62,5.27s-4.85-1.81-5.49-.57c-.45,.89,.63,1.39,2.16,2.1"/><ellipse class="j" cx="56.3" cy="55.58" rx="4.77" ry="4.07" transform="translate(-.65 .66) rotate(-.67)"/><ellipse class="j" cx="67.91" cy="55.44" rx="4.77" ry="4.07" transform="translate(-.65 .8) rotate(-.67)"/><ellipse class="l" cx="71.32" cy="36.88" rx="1.76" ry="1.01" transform="translate(10.93 89.8) rotate(-68.57)"/><ellipse class="l" cx="60.7" cy="32.71" rx="1.76" ry="1.01" transform="translate(8.07 77.27) rotate(-68.57)"/><path class="e" d="M78.51,34.83s.61-4.61-3.28-4.67"/><path class="e" d="M55.22,27.58s-.72-4.6,3.17-4.75"/><path class="m" d="M54.53,44.89c17.3,11.87,19.61-4.74,26.02,2.63,6.14,7.06-6.07,27.02-19.47,16.98-7.73-5.79-10.69-20.55-6.55-19.61Z"/><g class="n"><path class="k" d="M82.98,56.74s-17.61-5.72-25.62,9.4c-1.92,3.63,9.53,8.13,11.21,7.89,5.74-.84,13.54-6.81,14.41-17.29Z"/></g><g><path class="g" d="M88.87-7.72s5.63,25.8,.55,49.03"/><path class="h" d="M92.21-9.83c.24,.38,.42,.8,.52,1.27,.24,1.09,5.75,26.91,.55,50.72-.47,2.13-2.57,3.48-4.71,3.02-2.13-.47-3.48-2.57-3.02-4.71,4.83-22.14-.5-47.1-.56-47.35-.47-2.13,.89-4.24,3.02-4.7,1.67-.36,3.32,.39,4.19,1.75Z"/></g></g></g></svg>

<svg id="Layer_1" data-name="Layer 1" xmlns="http://www.w3.org/2000/svg" xmlns:xlink="http://www.w3.org/1999/xlink" viewBox="0 0 150 150"><defs><style>.cls-1,.cls-10{fill:none;}.cls-2{clip-path:url(#clip-path);}.cls-3,.cls-4{fill:#c5c6c8;stroke:#909395;}.cls-10,.cls-3,.cls-4,.cls-5,.cls-7{stroke-linejoin:round;}.cls-3{stroke-width:1.66px;}.cls-5,.cls-7,.cls-8{fill:#f89e4f;}.cls-10,.cls-5{stroke:#593314;}.cls-6{fill:#593314;}.cls-7{stroke:#593214;}.cls-10,.cls-7{stroke-linecap:round;}.cls-9{fill:#fff;}.cls-11{clip-path:url(#clip-path-2);}.cls-12{fill:#f05124;}</style><clipPath id="clip-path"><rect class="cls-1" x="29.04" width="91.93" height="140.5"/></clipPath><clipPath id="clip-path-2"><path class="cls-1" d="M54.53,44.89c17.29,11.87,19.61-4.73,26,2.63,6.14,7.06-6.07,27-19.47,17C53.35,58.71,50.39,44,54.53,44.89Z"/></clipPath></defs><g class="cls-2"><path class="cls-3" d="M57.27,38.72S49.09,13.62,51.81-10"/><path class="cls-4" d="M55.15-12.12a3.94,3.94,0,0,1,.59,2.56C53.15,12.9,61,37.25,61,37.49a4,4,0,1,1-7.52,2.45c-.34-1.06-8.41-26.2-5.63-50.4a4,4,0,0,1,4.38-3.48A3.91,3.91,0,0,1,55.15-12.12Z"/><path class="cls-4" d="M57.08,74.78c-1.55,7.41-4.59,27.22,4,48.28-1.33,7.24-1.2,18-1.2,18L71,124.9a70,70,0,0,1-6.66-50.76"/><path class="cls-4" d="M74,72.46c-1.55,7.41-4.6,27.22,4,48.28-1.34,7.24-1.2,18-1.2,18L87.9,122.59a70,70,0,0,1-6.66-50.77"/><polygon class="cls-5" points="71.43 5.5 51.85 40.34 32.28 75.19 72.24 74.72 112.2 74.25 91.82 39.87 71.43 5.5"/><ellipse class="cls-6" cx="60.95" cy="35.61" rx="7.76" ry="2.95" transform="translate(5.54 79.34) rotate(-68.57)"/><ellipse class="cls-6" cx="71.52" cy="39.75" rx="7.76" ry="2.95" transform="translate(8.39 91.81) rotate(-68.57)"/><path class="cls-7" d="M71.68,17.47S65.52,11.69,64,13.41c-1.21,1.4,4.52,4.8,4.39,5s-7.32-4.88-8.54-2.67c-1.08,2,5.94,4.71,5.62,5.27s-4.85-1.81-5.49-.57c-.45.88.63,1.39,2.17,2.1"/><ellipse class="cls-8" cx="56.3" cy="55.58" rx="4.77" ry="4.07" transform="translate(-0.65 0.66) rotate(-0.67)"/><ellipse class="cls-8" cx="67.91" cy="55.44" rx="4.77" ry="4.07" transform="translate(-0.65 0.8) rotate(-0.67)"/><ellipse class="cls-9" cx="71.32" cy="36.88" rx="1.76" ry="1.01" transform="translate(10.93 89.8) rotate(-68.57)"/><ellipse class="cls-9" cx="60.7" cy="32.71" rx="1.76" ry="1.01" transform="translate(8.07 77.27) rotate(-68.57)"/><path class="cls-10" d="M78.51,34.83s.61-4.61-3.28-4.67"/><path class="cls-10" d="M55.22,27.58s-.72-4.6,3.17-4.75"/><path class="cls-6" d="M54.53,44.89c17.29,11.87,19.61-4.73,26,2.63,6.14,7.06-6.07,27-19.47,17C53.35,58.71,50.39,44,54.53,44.89Z"/><g class="cls-11"><path class="cls-12" d="M83,56.74S65.37,51,57.36,66.14c-1.93,3.63,9.53,8.13,11.21,7.88C74.3,73.18,82.11,67.21,83,56.74Z"/></g><path class="cls-3" d="M88.87-7.72s5.62,25.8.55,49"/><path class="cls-4" d="M92.21-9.83a4,4,0,0,1,.52,1.27c.23,1.09,5.75,26.91.55,50.72a4,4,0,1,1-7.72-1.69c4.83-22.14-.5-47.1-.56-47.35a4,4,0,0,1,3-4.7A4,4,0,0,1,92.21-9.83Z"/></g></svg>
